X:80
T:Highway to Kilkenny, The
T:Humours of Kilkenny, The
R:slip jig
Z:hn-slipjig-80
M:9/8
L:1/8
K:G
G2g gag dBG | A2B c2d ecA | G2g gag dBG |1 e/f/ge f/g/af gdB :|2 A/B/cA BGE E2B ||
|: e2f gfe fdB | e2f g2a bge |1 gbg faf e/f/ge |
dBG A/B/cA BGE :|2 faf g2e dBG | A/B/cA BGE E2F || 
<end>
<start>
